.gitbook/assets/Billing.svg

<svg xmlns="http://www.w3.org/2000/svg" width="404" height="251" fill="none" viewBox="0 0 404 251"><path fill="#F2D664" d="M0 0h404v251H0z"/><path fill="#261F00" fill-rule="evenodd" d="M227.544 80.005a4.182 4.182 0 0 1 1.462 3.177v81.438a4.182 4.182 0 1 1-8.363 0V88.068l-62.07 9.698v66.854a4.182 4.182 0 1 1-8.364 0V94.187a4.182 4.182 0 0 1 3.537-4.132l70.433-11.005a4.183 4.183 0 0 1 3.365.955Z" clip-rule="evenodd"/><path fill="#261F00" fill-rule="evenodd" d="M176.623 144.813a4.182 4.182 0 0 1 4.182-4.182h17.608a4.182 4.182 0 0 1 4.182 4.182v17.608a4.182 4.182 0 0 1-8.364 0v-13.427h-9.245v13.427a4.181 4.181 0 1 1-8.363 0v-17.608Zm-4.474-33.026a4.182 4.182 0 0 1 4.182-4.182h4.472a4.183 4.183 0 0 1 0 8.364h-4.472a4.182 4.182 0 0 1-4.182-4.182Zm0 15.408a4.182 4.182 0 0 1 4.182-4.182h4.472a4.182 4.182 0 0 1 0 8.363h-4.472a4.181 4.181 0 0 1-4.182-4.181Zm22.083-15.408a4.182 4.182 0 0 1 4.182-4.182h4.472a4.183 4.183 0 0 1 0 8.364h-4.472a4.182 4.182 0 0 1-4.182-4.182Zm0 15.408a4.182 4.182 0 0 1 4.182-4.182h4.472a4.182 4.182 0 0 1 0 8.363h-4.472a4.181 4.181 0 0 1-4.182-4.181Z" clip-rule="evenodd"/><path fill="#261F00" fill-rule="evenodd" d="M137 166.819a4.182 4.182 0 0 1 4.182-4.182h121.86a4.182 4.182 0 1 1 0 8.363h-121.86a4.181 4.181 0 0 1-4.182-4.181Z" clip-rule="evenodd"/><path fill="#261F00" fill-rule="evenodd" d="M246.674 122.256h-19.505v-8.364h23.687a4.182 4.182 0 0 1 4.182 4.182v48.744h-8.364v-44.562Z" clip-rule="evenodd"/></svg>

<svg width="404" height="251" viewBox="0 0 404 251" fill="none" xmlns="http://www.w3.org/2000/svg">
<rect width="404" height="251" fill="#F2D664"/>
<path fill-rule="evenodd" clip-rule="evenodd" d="M227.544 80.0048C228.472 80.7993 229.006 81.96 229.006 83.1818V164.62C229.006 166.93 227.134 168.802 224.824 168.802C222.515 168.802 220.643 166.93 220.643 164.62V88.0678L158.573 97.7662V164.62C158.573 166.93 156.701 168.802 154.391 168.802C152.082 168.802 150.209 166.93 150.209 164.62V94.187C150.209 92.1267 151.71 90.3734 153.746 90.0553L224.179 79.0502C225.386 78.8615 226.615 79.2103 227.544 80.0048Z" fill="#261F00"/>
<path fill-rule="evenodd" clip-rule="evenodd" d="M176.623 144.813C176.623 142.503 178.495 140.631 180.805 140.631H198.413C200.722 140.631 202.595 142.503 202.595 144.813V162.421C202.595 164.731 200.722 166.603 198.413 166.603C196.103 166.603 194.231 164.731 194.231 162.421V148.994H184.986V162.421C184.986 164.731 183.114 166.603 180.805 166.603C178.495 166.603 176.623 164.731 176.623 162.421V144.813Z" fill="#261F00"/>
<path fill-rule="evenodd" clip-rule="evenodd" d="M172.149 111.787C172.149 109.478 174.021 107.605 176.331 107.605H180.803C183.112 107.605 184.985 109.478 184.985 111.787C184.985 114.097 183.112 115.969 180.803 115.969H176.331C174.021 115.969 172.149 114.097 172.149 111.787Z" fill="#261F00"/>
<path fill-rule="evenodd" clip-rule="evenodd" d="M172.149 127.195C172.149 124.885 174.021 123.013 176.331 123.013H180.803C183.112 123.013 184.985 124.885 184.985 127.195C184.985 129.504 183.112 131.376 180.803 131.376H176.331C174.021 131.376 172.149 129.504 172.149 127.195Z" fill="#261F00"/>
<path fill-rule="evenodd" clip-rule="evenodd" d="M194.232 111.787C194.232 109.478 196.104 107.605 198.414 107.605H202.886C205.195 107.605 207.068 109.478 207.068 111.787C207.068 114.097 205.195 115.969 202.886 115.969H198.414C196.104 115.969 194.232 114.097 194.232 111.787Z" fill="#261F00"/>
<path fill-rule="evenodd" clip-rule="evenodd" d="M194.232 127.195C194.232 124.885 196.104 123.013 198.414 123.013H202.886C205.195 123.013 207.068 124.885 207.068 127.195C207.068 129.504 205.195 131.376 202.886 131.376H198.414C196.104 131.376 194.232 129.504 194.232 127.195Z" fill="#261F00"/>
<path fill-rule="evenodd" clip-rule="evenodd" d="M137 166.819C137 164.509 138.872 162.637 141.182 162.637H263.042C265.352 162.637 267.224 164.509 267.224 166.819C267.224 169.128 265.352 171 263.042 171H141.182C138.872 171 137 169.128 137 166.819Z" fill="#261F00"/>
<path fill-rule="evenodd" clip-rule="evenodd" d="M246.674 122.256H227.169V113.892H250.856C253.166 113.892 255.038 115.764 255.038 118.074V166.818H246.674V122.256Z" fill="#261F00"/>
</svg>
